X: 1234
T: Baby Blue
B: australian traditional tunes wiki
M:4/4
L:1/8
R: Quickstep
Q: 1/4=100
K:C
V:1 
GA|"C"G4EF3|G4ccd2|"C"e3g ec3|G4cce2|"G7"d4BA3|G4Bd3|"C"c4"F"c4|"C"c4EE F<A|
"C"G4EF2A|G4cd3|"C"e3g eg ec|G4 ce3|"G7"d4BA3|G4Bd3|"C"c8|z2 e2ged2|
"C"c8-|c2z d cBA2|G8-|G2z2 cd3|e4-e G (3ceg|fe3dc3|"G7"d8-|d2e2ge d2|
"C"c6Bc|dc3BF3|"F"A8-|A2c2f3c|"C"eG3c3e|"G7"dG3B2d2|"C" c4"F"c4|"C"c4E2F2||
% abcbook-tune_id 6342d53a9114e0715b6df04d


% abcbook-boost 0
% abcbook-tablature 
% abcbook-transpose 
% abcbook-lastupdated 1665324355225
% abcbook-soundfonts 
% abcbook-repeats 1
% NFF Book 2020

